!!!AGN: Motet
!!!SCT: Nugent (2013)
!!!voices: 8
!!!COM: Jachet of Mantua
!!!OTL: Sancta Trinitas
**kern	**kern	**kern	**kern	**kern	**kern	**kern	**kern
*part8	*part7	*part6	*part5	*part4	*part3	*part2	*part1
*staff8	*staff7	*staff6	*staff5	*staff4	*staff3	*staff2	*staff1
*I"Bassus II	*I"Bassus I	*I"Tenor II	*I"Tenor I	*I"Altus II	*I"Altus I	*I"Superius II	*I"Superius I
*I'B. II	*I'B. I	*I'T. II	*I'T. I	*I'A. II	*I'A. I	*I'S. II	*I'S. I
*clefF4	*clefF4	*clefGv2	*clefGv2	*clefGv2	*clefGv2	*clefG2	*clefG2
*k[b-]	*k[b-]	*k[b-]	*k[b-]	*k[b-]	*k[b-]	*k[b-]	*k[b-]
*F:	*F:	*F:	*F:	*F:	*F:	*F:	*F:
*M2/1	*M2/1	*M2/1	*M2/1	*M2/1	*M2/1	*M2/1	*M2/1
*met(C|)	*met(C|)	*met(C|)	*met(C|)	*met(C|)	*met(C|)	*met(C|)	*met(C|)
!!Section: Prima pars: Sancta Trinitas
!!!OMD: Prima pars: Sancta Trinitas
1FF	1C	1r	0r	1A	1c	1f	0f
1FF	2C	1F	.	1c	1c	1a	.
.	[2F	.	.	.	.	.	.
=1	=1	=1	=1	=1	=1	=1	=1
1.BB-y	2F]	1F	1F	2.B-y	1.d	1.b-y	0f
.	2F	.	.	.	.	.	.
.	.	.	.	8AL	.	.	.
.	.	.	.	8GJ	.	.	.
.	[1D	[1B-y	1F	2F	.	.	.
2BB-y	.	.	.	2B-y	2d	2b-y	.
=2	=2	=2	=2	=2	=2	=2	=2
0GG	2D]	2B-]	1.B-y	2B-y	0d	0b-y	1.g
.	1G	2B-y	.	4G	.	.	.
.	.	.	.	4A	.	.	.
.	.	[1G	.	4B-y	.	.	.
.	.	.	.	4c	.	.	.
.	2G	.	2B-y	2d	.	.	2g
=3	=3	=3	=3	=3	=3	=3	=3
1.C	1E	1G]	0G	1c	1e	0cc	0g
.	[1C	[1c	.	2r	[1e	.	.
2C	.	.	.	2c	.	.	.
=4	=4	=4	=4	=4	=4	=4	=4
2AA	2C]	2c]	1c	2c	2e]	0cc	0a
1FF	1F	2c	.	1A	2.f	.	.
.	.	1A	2c	.	.	.	.
.	.	.	.	.	8eL	.	.
.	.	.	.	.	8dJ	.	.
[2F	2E	.	[2A	2F	2c	.	.
=5	=5	=5	=5	=5	=5	=5	=5
2F]	1D	1F	2A]	2r	2f	1.dd	1a
2F	.	.	4G	1f	2d	.	.
.	.	.	4F	.	.	.	.
1D	1BB-y	2.B-y	[1F	.	2r	.	[1b-y
.	.	.	.	2f	[2d	[2b-y	.
.	.	4c	.	.	.	.	.
=6	=6	=6	=6	=6	=6	=6	=6
2BB-y	0F	2d	1F]	2d	4d]	2b-]	2b-]
.	.	.	.	.	4e	.	.
1FF	.	2.A	.	1c	2f	2.cc	2a
.	.	.	1r	.	4F	.	[1a
.	.	4B-y	.	.	4G	4b-y	.
2FF	.	2c	.	2F	4A	4a	.
.	.	.	.	.	4B-y	4g	.
=7	=7	=7	=7	=7	=7	=7	=7
1FF	[0C	1r	1.c	1A	4c	1f	2a]
.	.	.	.	.	4F	.	.
.	.	.	.	.	1f	.	4g
.	.	.	.	.	.	.	4f
1C	.	[1c	.	1G	.	1r	1g
.	.	.	2B-y	.	2e	.	.
=8	=8	=8	=8	=8	=8	=8	=8
[0FF	0C]	2c]	2A	1F	[0f	1.cc	1a
.	.	2B-y	2G	.	.	.	.
.	.	2A	1F	1r	.	.	[1cc
.	.	2G	.	.	.	2b-y	.
=9	=9	=9	=9	=9	=9	=9	=9
0FF]	[0C	0F	2.A	1r	1f]	2a	2cc]
.	.	.	.	.	.	2g	2b-y
.	.	.	4B-y	.	.	.	.
.	.	.	[1c	2r	1r	1f	1a
.	.	.	.	[2f	.	.	.
=10	=10	=10	=10	=10	=10	=10	=10
0r	1C]	1G	1c]	2f]	2r	2r	1g
.	.	.	.	1e	1c	2cc	.
.	1r	1r	1r	.	.	2a	2e
.	.	.	.	[2d	2B-y	2b-y	[2f
=11	=11	=11	=11	=11	=11	=11	=11
0r	1r	2r	0r	4d]	1A	2cc	4f]
.	.	.	.	4c	.	.	4e
.	.	1c	.	2c	.	2f	4d
.	.	.	.	.	.	.	4c
.	2r	.	.	2r	1G	1g	1d
.	2GG	2B-y	.	2g	.	.	.
=12	=12	=12	=12	=12	=12	=12	=12
2r	2AA	1A	1r	2e	0r	0r	0c
1F	2FF	.	.	2f	.	.	.
.	1C	[1G	2r	2g	.	.	.
2E	.	.	[2c	2c	.	.	.
=13	=13	=13	=13	=13	=13	=13	=13
1D	1GG	1G]	2c]	1d	0r	2r	0r
.	.	.	2B-y	.	.	2g	.
1C	2AA	1r	1A	2r	.	2e	.
.	2FF	.	.	[2f	.	2f	.
=14	=14	=14	=14	=14	=14	=14	=14
2r	1C	2r	1G	2f]	0r	1g	0r
1C	.	2c	.	1e	.	.	.
.	1r	2A	2E	.	.	2c	.
2BB-y	.	2B-y	[2F	[2d	.	2d	.
=15	=15	=15	=15	=15	=15	=15	=15
1AA	1r	2c	4F]	4d]	2r	0r	0r
.	.	.	4E	4c	.	.	.
.	.	2F	4D	2c	1c	.	.
.	.	.	4C	.	.	.	.
1GG	2r	2.G	1D	1r	.	.	.
.	2D	.	.	.	2B-y	.	.
.	.	4F	.	.	.	.	.
=16	=16	=16	=16	=16	=16	=16	=16
1C	2E	4E	0C	2r	2A	0r	1r
.	.	4D	.	.	.	.	.
.	2C	2E	.	2c	2G	.	.
[1FF	2.F	2C	.	2c	1A	.	1a
.	.	[2F	.	2c	.	.	.
.	4E	.	.	.	.	.	.
=17	=17	=17	=17	=17	=17	=17	=17
1FF]	2D	4F]	0r	2.f	1.F	2r	1a
.	.	4G	.	.	.	.	.
.	2C	1A	.	.	.	2f	.
.	.	.	.	4e	.	.	.
1r	1D	.	.	4d	.	2a	1f
.	.	.	.	4c	.	.	.
.	.	2F	.	2d	[2f	2b-y	.
=18	=18	=18	=18	=18	=18	=18	=18
1r	1C	2r	0r	1G	2f]	2.cc	2.g
.	.	2c	.	.	2e	.	.
.	.	.	.	.	.	8b-yL	4f
.	.	.	.	.	.	8aJ	.
2r	1r	2G	.	2r	2d	2b-y	2g
2F	.	[2c	.	2A	2c	2cc	[2a
=19	=19	=19	=19	=19	=19	=19	=19
2F	2r	2c]	1r	2.A	2r	1f	2a]
2F	1F	4B-y	.	.	2c	.	4g
.	.	4A	.	4B-y	.	.	4f
1C	.	1G	2r	2c	2c	1r	1g
.	2E	.	[2c	2G	2c	.	.
=20	=20	=20	=20	=20	=20	=20	=20
2r	1D	1r	2c]	2A	1F	0r	2.f
1F	.	.	2B-y	2B-y	.	.	.
.	.	.	.	.	.	.	4g
.	1C	2r	2A	1c	1r	.	4a
.	.	.	.	.	.	.	4b-y
2E	.	2C	2G	.	.	.	[2cc
=21	=21	=21	=21	=21	=21	=21	=21
0D	0r	2F	1A	0d	0r	2r	4cc]
.	.	.	.	.	.	.	4b-y
.	.	1F	.	.	.	2f	1a
.	.	.	1F	.	.	2a	.
.	.	2D	.	.	.	2b-y	4g
.	.	.	.	.	.	.	4f
=22	=22	=22	=22	=22	=22	=22	=22
1C	2r	2.E	2.G	1G	1r	2.cc	2.e
.	2C	.	.	.	.	.	.
.	.	4F	4F	.	.	8b-yL	4d
.	.	.	.	.	.	8aJ	.
2r	2C	2G	2E	1c	2r	2g	2e
2FF	2C	2F	4D	.	[2c	[2a	2f
.	.	.	4C	.	.	.	.
=23	=23	=23	=23	=23	=23	=23	=23
2FF	1F	1A	1C	1r	2c]	2a]	2c
2FF	.	.	.	.	2A	2f	1f
2BB-y	2D	1G	1r	2r	2B-y	1g	.
2C	2E	.	.	[2c	2G	.	2e
=24	=24	=24	=24	=24	=24	=24	=24
[0FF	1C	[0F	0r	2c]	1.A	1r	0f
.	.	.	.	2c	.	.	.
.	2r	.	.	2F	.	[1cc	.
.	[2C	.	.	[2c	2F	.	.
=25	=25	=25	=25	=25	=25	=25	=25
1FF]	2C]	0F]	0c	4c]	2.A	1cc]	0r
.	.	.	.	4B-y	.	.	.
.	2C	.	.	4A	.	.	.
.	.	.	.	4G	4B-y	.	.
2r	1FF	.	.	1A	1c	[1a	.
[2F	.	.	.	.	.	.	.
=26	=26	=26	=26	=26	=26	=26	=26
2F]	1.F	0r	1A	0r	1c	2a]	0r
2F	.	.	.	.	.	1f	.
1BB-y	.	.	1B-y	.	1d	.	.
.	[2G	.	.	.	.	4e	.
.	.	.	.	.	.	4d	.
=27	=27	=27	=27	=27	=27	=27	=27
1C	2G]	0r	2G	0r	[0c	1e	0r
.	2E	.	2.c	.	.	.	.
[1FF	1F	.	.	.	.	[1a	.
.	.	.	4B-y	.	.	.	.
.	.	.	[2A	.	.	.	.
=28	=28	=28	=28	=28	=28	=28	=28
1FF]	1.C	1r	2A]	2r	1c]	1a]	0r
.	.	.	4G	1c	.	.	.
.	.	.	4F	.	.	.	.
1r	.	2r	2E	.	1r	2g	.
.	2FF	[2c	[2F	2c	.	[2a	.
=29	=29	=29	=29	=29	=29	=29	=29
0r	0r	2c]	4F]	2F	0r	4a]	0r
.	.	.	4E	.	.	4g	.
.	.	2c	4D	1A	.	4f	.
.	.	.	4C	.	.	4e	.
.	.	1F	1D	.	.	1f	.
.	.	.	.	2B-y	.	.	.
=30	=30	=30	=30	=30	=30	=30	=30
2r	0r	1G	2.C	0c	1.g	0e	0r
1C	.	.	.	.	.	.	.
.	.	.	4D	.	.	.	.
.	.	2C	4E	.	.	.	.
.	.	.	4F	.	.	.	.
2C	.	[2c	2G	.	2e	.	.
=31	=31	=31	=31	=31	=31	=31	=31
2FF	2r	2c]	2A	0r	2f	0r	0r
2GG	2G	2B-y	2B-y	.	2d	.	.
2C	2E	2G	2c	.	2e	.	.
[2BB-y	[2F	[2B-y	[2d	.	[2d	.	.
=32	=32	=32	=32	=32	=32	=32	=32
2BB-]	2F]	4B-]	4d]	0r	2d]	0r	0r
.	.	4A	4c	.	.	.	.
2C	2E	4G	1c	.	2.g	.	.
.	.	4F	.	.	.	.	.
1GG	1D	1G	.	.	.	.	.
.	.	.	.	.	4f	.	.
.	.	.	2BnXi	.	4e	.	.
.	.	.	.	.	4d	.	.
=33	=33	=33	=33	=33	=33	=33	=33
1C	0C	2r	0c	1r	2.e	0r	1r
.	.	1G	.	.	.	.	.
.	.	.	.	.	4c	.	.
2r	.	.	.	2r	4e	.	1g
.	.	.	.	.	4f	.	.
2C	.	[2c	.	2e	2g	.	.
=34	=34	=34	=34	=34	=34	=34	=34
2.F	0r	4c]	0r	1f	2c	0r	2.a
.	.	4B-y	.	.	.	.	.
.	.	2c	.	.	1f	.	.
4E	.	.	.	.	.	.	4g
2F	.	2A	.	1d	.	.	2a
2G	.	2G	.	.	4e	.	2b-y
.	.	.	.	.	4d	.	.
=35	=35	=35	=35	=35	=35	=35	=35
1C	2r	2r	0r	2c	2e	1c	1cc
.	2FF	2A	.	1F	2.f	.	.
1r	2.BB-y	1B-y	.	.	.	2.d	[1b-y
.	.	.	.	.	4e	.	.
.	.	.	.	[2f	[2d	.	.
.	4AA	.	.	.	.	4c	.
=36	=36	=36	=36	=36	=36	=36	=36
1r	2BB-y	1G	0r	2f]	2d]	2d	2b-]
.	2C	.	.	2e	2c	2e	4a
.	.	.	.	.	.	.	4g
1F	1FF	1F	.	2c	2r	2f	1a
.	.	.	.	[2f	2F	[2cc	.
=37	=37	=37	=37	=37	=37	=37	=37
1.G	0r	1r	0r	2f]	2.B-y	4cc]	2.g
.	.	.	.	.	.	4b-y	.
.	.	.	.	4e	.	1b-y	.
.	.	.	.	4d	4A	.	4f
.	.	2r	.	4e	2B-y	.	2g
.	.	.	.	4d	.	.	.
[2F	.	2F	.	[2f	2c	2a	[2a
=38	=38	=38	=38	=38	=38	=38	=38
2F]	0r	2.A	0r	1f]	1F	2f	2a]
2D	.	.	.	.	.	2a	4g
.	.	4B-y	.	.	.	.	4f
2E	.	1c	.	2e	1r	2g	2g
2F	.	.	.	4d	.	2f	2a
.	.	.	.	4c	.	.	.
=39	=39	=39	=39	=39	=39	=39	=39
2BB-y	1F	2B-y	0r	2d	1r	4f	2b-y
.	.	.	.	.	.	4d	.
2F	.	1.c	.	2c	.	1f	1a
1C	1G	.	.	1r	2r	.	.
.	.	.	.	.	[2c	2e	2g
=40	=40	=40	=40	=40	=40	=40	=40
0FF	0F	2.A	1r	0r	2c]	1f	0a
.	.	.	.	.	2d	.	.
.	.	8GL	.	.	.	.	.
.	.	8FJ	.	.	.	.	.
.	.	[1F	2r	.	2c	1r	.
.	.	.	2c	.	2A	.	.
=41	=41	=41	=41	=41	=41	=41	=41
0r	0BB-y	1F]	2.d	0r	2.B-y	0f	0r
.	.	.	4c	.	4c	.	.
.	.	1r	2B-y	.	1d	.	.
.	.	.	2A	.	.	.	.
=42	=42	=42	=42	=42	=42	=42	=42
1r	1C	0r	2G	0r	1c	1e	0r
.	.	.	2.c	.	.	.	.
1C	1r	.	.	.	1e	1g	.
.	.	.	4B-y	.	.	.	.
.	.	.	4A	.	.	.	.
.	.	.	4G	.	.	.	.
=43	=43	=43	=43	=43	=43	=43	=43
0D	1r	0r	2B-y	2r	0d	2f	0r
.	.	.	1A	2F	.	1f	.
.	1F	.	.	2A	.	.	.
.	.	.	4G	2B-y	.	4e	.
.	.	.	4F	.	.	4d	.
=44	=44	=44	=44	=44	=44	=44	=44
1C	2.G	1r	2E	0c	0r	2.e	0r
.	.	.	2.G	.	.	.	.
.	4F	.	.	.	.	4f	.
[1C	4E	2r	.	.	.	1g	.
.	4D	.	4F	.	.	.	.
.	[2E	2C	4E	.	.	.	.
.	.	.	4D	.	.	.	.
=45	=45	=45	=45	=45	=45	=45	=45
2C]	4E]	2E	2C	2G	0r	1r	0r
.	4D	.	.	.	.	.	.
2AA	1C	2F	1F	2A	.	.	.
1GG	.	2G	.	1B-y	.	1g	.
.	2BB-y	2G	2E	.	.	.	.
=46	=46	=46	=46	=46	=46	=46	=46
[0FF	0C	2C	1F	[0A	[0c	1.a	0r
.	.	4F	.	.	.	.	.
.	.	4G	.	.	.	.	.
.	.	4A	1r	.	.	.	.
.	.	4B-y	.	.	.	.	.
.	.	[2c	.	.	.	2g	.
=47	=47	=47	=47	=47	=47	=47	=47
1FF]	1r	2c]	1F	1A]	0c]	1f	1r
.	.	4B-y	.	.	.	.	.
.	.	4A	.	.	.	.	.
1r	[1C	2G	1G	1r	.	1e	1g
.	.	2C	.	.	.	.	.
=48	=48	=48	=48	=48	=48	=48	=48
0FF	1C]	1r	1.F	[0c	0A	1.f	1.a
.	1C	[1F	.	.	.	.	.
.	.	.	4E	.	.	2g	2g
.	.	.	4D	.	.	.	.
=49	=49	=49	=49	=49	=49	=49	=49
1FF	1.F	1F]	1C	1c]	1A	1a	2.f
.	.	.	.	.	.	.	4e
1BB-y	.	1F	1r	[1B-y	[1d	[1b-y	1d
.	4E	.	.	.	.	.	.
.	4D	.	.	.	.	.	.
=50	=50	=50	=50	=50	=50	=50	=50
0GG	0D	0B-y	[0G	2B-]	1d]	1b-]	1.g
.	.	.	.	2c	.	.	.
.	.	.	.	1d	1B-y	[1g	.
.	.	.	.	.	.	.	2f
=51	=51	=51	=51	=51	=51	=51	=51
[0C	[0E	[0G	1G]	1c	[0c	0g_	2.e
.	.	.	.	.	.	.	4d
.	.	.	1C	[1e	.	.	1c
=52	=52	=52	=52	=52	=52	=52	=52
0C]	1E]	0G]	2.E	1e]	0c]	1g]	1.cc
.	.	.	4F	.	.	.	.
.	[1C	.	1G	1e	.	1g	.
.	.	.	.	.	.	.	2b-y
=53	=53	=53	=53	=53	=53	=53	=53
1FF	1C]	[0F	1A	1f	1c	1cc	2.a
.	.	.	.	.	.	.	4g
[1BB-y	[1D	.	1B-y	2.d	2F	2.cc	1f
.	.	.	.	.	[2f	.	.
.	.	.	.	4e	.	4cc	.
=54	=54	=54	=54	=54	=54	=54	=54
0BB-]	0D]	0F]	2.B-y	1.f	2f]	0dd	1.b-y
.	.	.	.	.	2f	.	.
.	.	.	4c	.	.	.	.
.	.	.	1d	.	1f	.	.
.	.	.	.	2F	.	.	2a
=55	=55	=55	=55	=55	=55	=55	=55
1C	1E	2r	1G	[0c	2.e	2.cc	1g
.	.	1C	.	.	.	.	.
.	.	.	.	.	4d	4b-y	.
1FF	1F	.	2.A	.	4c	4a	1f
.	.	.	.	.	4B-y	4g	.
.	.	2F	.	.	2A	[2a	.
.	.	.	4B-y	.	.	.	.
=56	=56	=56	=56	=56	=56	=56	=56
2r	1C	2G	2c	0c]	2r	2a]	1e
1C	.	2E	2C	.	2c	2g	.
.	1FF	[1A	2.F	.	2A	1a	[1f
[2F	.	.	.	.	2F	.	.
.	.	.	4G	.	.	.	.
=57	=57	=57	=57	=57	=57	=57	=57
2F]	1r	2A]	2A	0r	2c	1f	2f]
2BB-y	.	2B-y	2F	.	2d	.	4e
.	.	.	.	.	.	.	4d
1C	2r	1G	2r	.	1c	2r	1e
.	2C	.	2c	.	.	2g	.
=58	=58	=58	=58	=58	=58	=58	=58
1FF	2.F	1F	2c	2r	1A	2a	0f
.	.	.	2c	2c	.	2f	.
.	4E	.	.	.	.	.	.
1r	2D	1r	2.F	2f	1r	2a	.
.	2D	.	.	2f	.	2b-y	.
.	.	.	4F	.	.	.	.
=59	=59	=59	=59	=59	=59	=59	=59
2r	1C	2r	2G	2.e	1r	0cc	2r
2FF	.	2c	2A	.	.	.	2f
.	.	.	.	4d	.	.	.
2F	1r	2c	1r	4c	2r	.	2f
.	.	.	.	4d	.	.	.
2E	.	2c	.	4e	2c	.	2e
.	.	.	.	4c	.	.	.
=60	=60	=60	=60	=60	=60	=60	=60
2D	1r	2F	1r	1d	2f	1r	2f
2D	.	2F	.	.	2f	.	2g
1C	2r	1G	2r	1r	2.e	2r	1a
.	2C	.	2c	.	.	2g	.
.	.	.	.	.	4d	.	.
=61	=61	=61	=61	=61	=61	=61	=61
0r	2F	0r	2c	2r	4c	2a	0r
.	.	.	.	.	4d	.	.
.	2E	.	2c	2c	4e	2g	.
.	.	.	.	.	4c	.	.
.	2D	.	2F	2f	1d	2a	.
.	2D	.	2F	2f	.	2b-y	.
=62	=62	=62	=62	=62	=62	=62	=62
2r	1C	2r	1G	2.e	1r	0cc	2r
2C	.	2c	.	.	.	.	2g
.	.	.	.	4d	.	.	.
2F	1r	2c	1r	4c	2r	.	2a
.	.	.	.	4d	.	.	.
2E	.	2c	.	4e	2c	.	2g
.	.	.	.	4c	.	.	.
=63	=63	=63	=63	=63	=63	=63	=63
2D	0r	2F	0r	1d	2f	0r	2a
2D	.	2F	.	.	2f	.	2b-y
2C	.	1G	.	1r	2e	.	2cc
2G	.	.	.	.	2d	.	[2dd
=64	=64	=64	=64	=64	=64	=64	=64
1A	1r	0r	1F	0r	2e	2r	2dd]
.	.	.	.	.	2f	2c	1cc
[1G	1GG	.	1B-y	.	[1g	2e	.
.	.	.	.	.	.	2d	2b-y
=65	=65	=65	=65	=65	=65	=65	=65
2G]	2.C	0r	2G	2r	2g]	2e	1cc
2C	.	.	2.c	1G	1e	2f	.
.	4D	.	.	.	.	.	.
1r	2E	.	.	.	.	2g	1r
.	.	.	4B-y	.	.	.	.
.	2F	.	4A	2F	2c	[2a	.
.	.	.	4G	.	.	.	.
=66	=66	=66	=66	=66	=66	=66	=66
1r	2D	2r	1F	2A	0r	4a]	0r
.	.	.	.	.	.	4g	.
.	2D	2F	.	2B-y	.	1f	.
2r	2C	2A	1r	[1c	.	.	.
2C	2C	2G	.	.	.	2e	.
=67	=67	=67	=67	=67	=67	=67	=67
2.F	1FF	2.A	0r	2c]	2r	1f	0r
.	.	.	.	8cL	2f	.	.
.	.	.	.	8B-y	.	.	.
4G	.	4B-y	.	8A	.	.	.
.	.	.	.	8GJ	.	.	.
2A	1r	2c	.	2F	4f	1r	.
.	.	.	.	.	4e	.	.
2B-y	.	2d	.	[2f	4d	.	.
.	.	.	.	.	4c	.	.
=68	=68	=68	=68	=68	=68	=68	=68
2G	1r	2d	1r	2f]	4B-y	0r	2r
.	.	.	.	.	4G	.	.
2G	.	2B-y	.	2e	2B-y	.	2g
2F	2r	1c	2r	1f	2A	.	1a
2F	2F	.	2A	.	[2c	.	.
=69	=69	=69	=69	=69	=69	=69	=69
1C	1G	0r	1c	2r	2c]	2r	1g
.	.	.	.	2e	2G	2g	.
2r	2.F	.	2A	1f	2r	1a	1r
2F	.	.	[2c	.	2A	.	.
.	4E	.	.	.	.	.	.
=70	=70	=70	=70	=70	=70	=70	=70
1G	1C	2r	4c]	1e	1c	2g	2r
.	.	.	4B-y	.	.	.	.
.	.	1c	1G	.	.	2e	2g
2.F	1r	.	.	2.A	2A	1f	1a
.	.	2F	2r	.	[2c	.	.
4E	.	.	.	4B-y	.	.	.
=71	=71	=71	=71	=71	=71	=71	=71
1C	2r	2G	2r	1c	4c]	1e	1g
.	.	.	.	.	4B-y	.	.
.	1C	2.A	1c	.	2G	.	.
1r	.	.	.	1r	1r	1c	1e
.	.	4G	.	.	.	.	.
.	2AA	4F	2c	.	.	.	.
.	.	4E	.	.	.	.	.
=72	=72	=72	=72	=72	=72	=72	=72
1r	2D	2D	2A	0r	1r	2d	1f
.	2BB-y	2G	2B-y	.	.	2d	.
2r	2C	2E	2G	.	2r	2c	1e
[2C	2C	[2A	2G	.	[2c	2e	.
=73	=73	=73	=73	=73	=73	=73	=73
2C]	1FF	4A]	1F	0r	2c]	0f	1c
.	.	4G	.	.	.	.	.
2AA	.	4F	.	.	2c	.	.
.	.	4E	.	.	.	.	.
2D	1r	2D	1r	.	2A	.	2d
2BB-y	.	2G	.	.	2B-y	.	2d
=74	=74	=74	=74	=74	=74	=74	=74
2C	0r	1C	2r	2r	2G	1e	1c
2C	.	.	2G	1c	2G	.	.
1FF	.	2r	1A	.	1F	1r	1r
.	.	2c	.	2A	.	.	.
=75	=75	=75	=75	=75	=75	=75	=75
0r	0r	2d	2G	2B-y	0r	1g	0r
.	.	1c	2E	2c	.	.	.
.	.	.	1F	2A	.	1a	.
.	.	2A	.	2F	.	.	.
=76	=76	=76	=76	=76	=76	=76	=76
0r	0r	2B-y	2E	2G	1r	2g	0r
.	.	2A	2C	1c	.	2e	.
.	.	[1F	[1D	.	2r	2.f	.
.	.	.	.	2B-y	[2f	.	.
.	.	.	.	.	.	4g	.
=77	=77	=77	=77	=77	=77	=77	=77
0r	0r	2F]	2D]	2.A	2f]	1a	0r
.	.	2F	2D	.	2d	.	.
.	.	.	.	8GL	.	.	.
.	.	.	.	8FJ	.	.	.
.	.	2G	1C	[1c	1e	2r	.
.	.	2G	.	.	.	[2cc	.
=78	=78	=78	=78	=78	=78	=78	=78
0r	2r	2.F	0r	1c]	2.f	2cc]	0r
.	1F	.	.	.	.	1a	.
.	.	4G	.	.	4e	.	.
.	.	2A	.	1r	2c	.	.
.	2D	2F	.	.	[2d	2b-y	.
=79	=79	=79	=79	=79	=79	=79	=79
2r	2E	0r	2r	0r	2d]	2g	0r
1F	2F	.	1A	.	1c	2a	.
.	1D	.	.	.	.	1f	.
2D	.	.	2F	.	2B-y	.	.
=80	=80	=80	=80	=80	=80	=80	=80
2E	2C	2r	2G	2r	1c	0r	0r
2F	2FF	1A	2A	1f	.	.	.
1D	1r	.	4F	.	1d	.	.
.	.	.	4G	.	.	.	.
.	.	2F	4A	2d	.	.	.
.	.	.	4B-y	.	.	.	.
=81	=81	=81	=81	=81	=81	=81	=81
2C	2r	2G	2c	2e	2G	0r	2r
2FF	1F	2A	1A	1f	2.c	.	2c
1r	.	1F	.	.	.	.	1d
.	.	.	.	.	4A	.	.
.	2D	.	2F	2f	2B-y	.	.
=82	=82	=82	=82	=82	=82	=82	=82
2r	2E	2C	2G	2e	2G	2r	1c
1F	2F	2.c	2A	2c	2F	1a	.
.	1D	.	1F	1d	1r	.	1f
.	.	4A	.	.	.	.	.
2D	.	2B-y	.	.	.	2f	.
=83	=83	=83	=83	=83	=83	=83	=83
2E	2C	1c	0r	2G	2r	2g	2e
2F	2FF	.	.	2.c	1f	2a	1a
1D	1r	1d	.	.	.	1f	.
.	.	.	.	4B-y	.	.	.
.	.	.	.	4B-y	2d	.	4g
.	.	.	.	4A	.	.	4f
=84	=84	=84	=84	=84	=84	=84	=84
2C	2r	2G	2r	2c	2e	2e	4g
.	.	.	.	.	.	.	4a
2BB-y	1.BB-y	2.d	1F	2F	2f	2d	4b-y
.	.	.	.	.	.	.	4a
1D	.	.	.	1B-y	1d	2f	4b-y
.	.	4c	.	.	.	.	4a
.	.	4B-y	2D	.	.	[2g	4g
.	.	4A	.	.	.	.	4f
=85	=85	=85	=85	=85	=85	=85	=85
2r	2C	2G	2E	2r	2.c	4g]	2e
.	.	.	.	.	.	4e	.
2C	2FF	2F	4C	2A	.	2a	1f
.	.	.	4D	.	8B-yL	.	.
.	.	.	.	.	8AJ	.	.
2C	1C	1G	4E	[1c	2G	2r	.
.	.	.	4F	.	.	.	.
2C	.	.	2G	.	[2c	[2cc	2e
=86	=86	=86	=86	=86	=86	=86	=86
1FF	2r	1F	2A	2c]	4c]	2cc]	0f
.	.	.	.	.	4F	.	.
.	1F	.	2A	2c	4f	2a	.
.	.	.	.	.	4e	.	.
1BB-y	.	1r	1F	2d	4d	1b-y	.
.	.	.	.	.	4c	.	.
.	2D	.	.	2f	[2d	.	.
=87	=87	=87	=87	=87	=87	=87	=87
2r	2E	0r	2r	2e	4d]	2g	0r
.	.	.	.	.	4c	.	.
1F	2F	.	1A	4d	1c	2a	.
.	.	.	.	4c	.	.	.
.	1D	.	.	1d	.	1f	.
2D	.	.	2F	.	2BnXi	.	.
=88	=88	=88	=88	=88	=88	=88	=88
2E	2C	2r	2G	2r	1c	0r	0r
2F	2FF	1A	2A	1f	.	.	.
1D	1r	.	4F	.	1d	.	.
.	.	.	4G	.	.	.	.
.	.	2F	4A	2d	.	.	.
.	.	.	4B-y	.	.	.	.
=89	=89	=89	=89	=89	=89	=89	=89
2C	2r	2G	2B-y	2e	2G	0r	2r
2FF	1F	2A	1A	1.f	2.c	.	2c
1r	.	1F	.	.	.	.	1d
.	.	.	.	.	4A	.	.
.	2D	.	2F	.	2B-y	.	.
=90	=90	=90	=90	=90	=90	=90	=90
2r	2E	2C	2G	2e	2G	2r	1c
1F	2F	2.c	2A	2c	2F	1a	.
.	1D	.	1F	1d	1r	.	1f
.	.	4A	.	.	.	.	.
2D	.	2B-y	.	.	.	2f	.
=91	=91	=91	=91	=91	=91	=91	=91
2E	2C	1c	0r	2G	2r	2g	2e
2F	2FF	.	.	2.c	1f	2a	1a
1D	1r	1d	.	.	.	1f	.
.	.	.	.	4BnXi	.	.	.
.	.	.	.	4Bni	2d	.	4g
.	.	.	.	4A	.	.	4f
=92	=92	=92	=92	=92	=92	=92	=92
2C	2r	2G	2r	2c	2e	2e	4g
.	.	.	.	.	.	.	4a
2BB-y	1.BB-y	2.d	1F	2F	2f	2d	4b-y
.	.	.	.	.	.	.	4a
1D	.	.	.	1B-y	1d	2f	4b-y
.	.	4c	.	.	.	.	4a
.	.	4B-y	2D	.	.	[2g	4g
.	.	4A	.	.	.	.	4f
=93	=93	=93	=93	=93	=93	=93	=93
2r	2C	2G	2E	2r	1c	4g]	2e
.	.	.	.	.	.	4e	.
2C	2FF	2F	4C	2A	.	2a	1f
.	.	.	4D	.	.	.	.
2C	1C	1G	4E	[1c	2r	2r	.
.	.	.	4F	.	.	.	.
2C	.	.	2G	.	2c	[2cc	2e
=94	=94	=94	=94	=94	=94	=94	=94
0FF	2r	[0Fl	2.A	2c]	2c	4cc]	[0fl
.	.	.	.	.	.	4b-y	.
.	2C	.	.	2c	2c	4a	.
.	.	.	4B-y	.	.	4g	.
.	2C	.	2c	1c	2F	[1a	.
.	2C	.	[2C	.	[2f	.	.
=95	=95	=95	=95	=95	=95	=95	=95
1r	2FF	0F_	2C]	2A	4f]	2a]	0f_
.	.	.	.	.	4e	.	.
.	2.BB-y	.	2D	2.B-y	4d	2f	.
.	.	.	.	.	4c	.	.
1BB-y	.	.	2D	.	1d	[1b-y	.
.	4C	.	.	4A	.	.	.
.	[2D	.	[2F	4B-y	.	.	.
.	.	.	.	4c	.	.	.
=96	=96	=96	=96	=96	=96	=96	=96
1.BB-y	2D]	0F_	4F]	2.d	1B-y	1b-]	0f_
.	.	.	4E	.	.	.	.
.	2BB-y	.	4D	.	.	.	.
.	.	.	4C	4e	.	.	.
.	[1F	.	1D	2f	2r	1b-y	.
2BB-y	.	.	.	2F	2B-y	.	.
=97	=97	=97	=97	=97	=97	=97	=97
[0FFl	2F]	0F_	[0Cl	2.A	2c	[0al	0f_
.	4E	.	.	.	2F	.	.
.	4D	.	.	4B-y	.	.	.
.	1C	.	.	1c	2.A	.	.
.	.	.	.	.	4B-y	.	.
=98	=98	=98	=98	=98	=98	=98	=98
00FF]	00FFl	00F]	00C]	00Al	00cl	00a]	00f]
==	==	==	==	==	==	==	==
*-	*-	*-	*-	*-	*-	*-	*-
!!!system-decoration: [*]
!!!RDF**kern: i = editorial accidental
!!!RDF**kern: l = terminal long
!!!ENC: Benjamin Ory
!!!END: 2022/4/27
!!!EED: Benjamin Ory
!!!EEV: 2022/04/27
!!!YEC: Copyright 2022 Benjamin Ory, All Rights Reserved
!!!ONB: Translated from MusicXML on 2022/04/27